static/techs/express.svg

<svg xmlns="http://www.w3.org/2000/svg" fill-rule="evenodd" clip-rule="evenodd" image-rendering="optimizeQuality" shape-rendering="geometricPrecision" text-rendering="geometricPrecision" viewBox="0 0 1333 774"><path d="M1333 753c-48 13-78 1-105-39l-191-265-28-37-224 303c-25 36-52 52-100 39l287-384L705 22c46-8 78-4 106 37l198 268 200-266c26-37 53-51 99-37l-103 137-140 182c-17 21-14 35 1 55l267 355zM0 363l24-115C87 20 349-75 529 66c105 83 131 200 126 331H62c-9 237 161 379 378 307 76-26 120-86 143-160 11-37 30-43 65-33-18 94-58 171-144 220a348 348 0 0 1-405-52C42 620 18 546 8 466l-8-38v-65zm63-16h536C596 177 489 55 344 54 184 53 70 171 63 347z" fill-rule="nonzero"/></svg>

<svg width="1333" height="774" viewBox="0 0 1333 774" fill="none" xmlns="http://www.w3.org/2000/svg">
<path d="M1333 753C1285 766 1255 754 1228 714L1037 449L1009 412L785 715C760 751 733 767 685 754L972 370L705 22C751 14 783 18 811 59L1009 327L1209 61C1235 24 1262 10 1308 24L1205 161L1065 343C1048 364 1051 378 1066 398L1333 753ZM0 363L24 248C87 20 349 -75 529 66C634 149 660 266 655 397H62C53 634 223 776 440 704C516 678 560 618 583 544C594 507 613 501 648 511C630 605 590 682 504 731C439.623 766.106 365.802 779.981 293.072 770.643C220.342 761.304 152.42 729.231 99 679C42 620 18 546 8 466L0 428V363ZM63 347H599C596 177 489 55 344 54C184 53 70 171 63 347Z" fill="white"/>
</svg>
